X:1
T:Jessica Griffin's No. 2
C:Stephen Jones, Montreal 1993
R:Waltz
M:3/4
L:1/8
K:A
%%printtempo 0
Q:160
   z2 |\
"A"Aa ga ec | "G"B=g fg ed | "A"ca ga ec | "D"da fd "G"=gB ||\
"A"Aa ga ec | "D"de fd B/c/d |"A"ec Ac "E"dB | A4 :|
|: AB |\
"Am"=cB AB ce | "G"dB =GB =cB | "A" Aa ga ec | "Em" B=g fg ab ||\
"Am"=cB AB ce | "G"dB =GB =cB | "A" Aa ga ec | "A"A4 :|
